X: 1
T: Midnight Sojourn
C: Shannon Heaton 2016
R: waltz
Z: 2016 John Chambers <jc:trillian.mit.edu>
F: https://soundcloud.com/shannonheatonmusic/midnight-sojourn
M: 3/4
L: 1/8
K: D
zDE |\
"D"F3 A EF | "D/F#"f3 d ef | "G"g2 f3 A | "A"AB B2 AG |\
"D"F3 A EF | "D/F#"ef d3 A | "G"G2 GA Bd | "A"eA cd ea |
"D"f3 A de | "D/F#"ef d3 A | "G"B2 g3 A | "Em"G3 B ce |\
"D"d3 e ed | "G"fz "D"A3 f | "A"ef d2 cd | "D"d3 :|
|: A de |\
"D/A" f3 a aA | "G/A"B3 G de | "D/A"gf d2 de | "A"cA A2 de |\
"D/A"f2 fg aA | "G/A"B3 G de | "D"fg "A"e3 d | "D"d2 de fg |
"D/A"a3 A dc | "G/A"B3 G de | "D/A"gf d2 de | "A"cA A2 de |\
"Bm"f2 fe ed | "G"Bd A3 g | "A"fg e3 d | "D"d3 :|
